X:1
T:See, the Conqueror Mounts in Triumph
T:Text: Christopher Wordsworth, 1862, alt. Tune: Henry Smart, 1868
T:87 87 D REX GLORIAE www.hymnary.org/text/see_the_conqueror_mounts_in_triumph
T:See, the Conqueror Mounts in Triumph
T:This hymn is in the public domain. You may freely use this score for personal and congregational worship. If you reproduce the score, please credit Hymnary.org as the source. 
T:This hymn is in the public domain. You may freely use this score for personal and congregational worship. If you reproduce the score, please credit Hymnary.org as the source. 
Z:This hymn is in the public domain. You may freely use this score for personal and congregational worship. If you reproduce the score, please credit Hymnary.org as the source.
%%score ( 1 2 ) ( 3 4 )
L:1/8
M:4/4
K:G
V:1 treble nm="SOPRANO ALTO" snm="S. A."
V:2 treble 
V:3 bass nm="TENOR BASS" snm="T. B."
V:4 bass 
V:1
"^1""^2""^3" G2 D2 G2 A2 | B3 c B2 A2 | d2 G2 A2 Bc | B2 A2 B4 | B2 A2 B2 d2 | G2 F2 F2 E2 | %6
w: See, the Con- queror|mounts in tri- umph;|see the King in *|roy- al state,|rid- ing on the|clouds, his char- iot,|
w: He who on the|cross did suf- fer,|he who from the *|grave a- rose,|he has van- quished|sin and Sa- tan,|
w: You have raised our|hu- man na- ture|on the clouds to *|God's right hand;|there we sit in|heav- enly plac- es,|
 A2 A2 d2 F2 | E2 E2 D4 | D3 E F2 A2 | G2 F2 E2 D2 | G2 A2 Bc d2 | c2 B2 A4 |1 G2 D2 G2 A2 | %13
w: to his heav- enly|pal- ace gate.|Hark! the choirs of|an- gel voic- es|joy- ful al- * le-|lu- ias sing,|and the gates on|
w: he by death has|spoiled his foes.|While he lifts his|hands in bless- ing,|he is par- * ed|from his friends.|While their ea- ger|
w: there with you in|glo- ry stand.|Je- sus reigns, a-|dored by an- gels;|man with God * is|on the throne!|Might- y Lord, in|
 B3 c B2 A2 | d2 G2 c2 B2 | A2 A2 G4 |] %16
w: high are o- pened|to re- ceive their|heav- enly King.|
w: eyes be- hold him,|in the cloud the|Lord as- cends.|
w: your as- cen- sion|we by faith can|see our own.|
V:2
 D2 A,2 B,2 D2 | D2 D2 D2 D2 | D2 B,2 E2 E2 | D2 D2 D4 | D2 D2 D2 D2 | B,^C D2 D2 C2 | %6
 E2 FE D2 D2 | D2 ^C2 D4 | D3 D D2 E2 | D2 D2 C2 B,2 | B,2 D2 D2 D2 | D2 D2 D4 |1 D2 D2 D2 D2 | %13
 D2 G2 D2 D2 | D2 B,2 E2 D2 | D3 C B,4 |] %16
V:3
 B,2 A,2 G,2 F,2 | G,3 A, G,2 F,2 | G,2 G,2 G,2 G,2 | G,2 F,2 G,4 | G,2 F,2 G,2 A,2 | %5
 B,2 A,2 A,2 A,2 | G,2 A,G, F,2 A,2 | B,2 A,G, F,4 | F,3 G, A,2 C2 | B,2 A,2 G,A, B,2 | %10
 G,2 F,2 G,A, B,2 | F,2 G,2 F,4 |1 G,2 F,2 G,2 F,2 | G,3 A, G,2 F,2 | G,2 G,2 G,2 G,2 | %15
 G,2 F,2 G,4 |] %16
V:4
 G,2 F,2 E,2 D,C, | B,,2 G,,2 D,2 D,2 | B,,2 E,2 C,2 B,,A,, | D,2 D,2 G,,4 | G,2 D,2 G,2 F,2 | %5
 E,2 F,G, A,2 A,,2 | ^C,2 A,,2 B,,2 A,,2 | G,,2 A,,2 D,4 | D,3 D, D,2 A,,2 | B,,C, D,2 E,F, G,2 | %10
 E,2 D,2 G,2 B,,2 | A,,2 G,,2 (D,2 C,2) |1 B,,2 D,C, B,,2 A,,2 | G,,2 E,2 D,3 C, | %14
 B,,2 E,2 C,2 G,,2 | D,2 D,2 G,,4 |] %16

